public/avatar/hat/186.svg

<svg xmlns:xlink="http://www.w3.org/1999/xlink" height="92.9" width="100.7" xmlns="http://www.w3.org/2000/svg"><use height="33.1" transform="translate(21.8 39.6)" width="32.35" xlink:href="#a"/><defs><g id="a" fill-rule="evenodd"><path d="M-6.4-3.95q2.25-1.1 4.15-1.3Q3.5-5.85 7-4q2.8 1.45 5.2 5.15 2.1 3.1 2.5 8.05.4 4.9.8 6.6-1.3.25-1.8.85l-.3.55q-.85 5.7-2 5.4 0-3.35-.75-7.25Q9.1 7.6 5.3 4.95 2.9 8-2.9 9.25l-7.8.85q-1.65 9.1-1.35 12.85-1.05-1.7-1.8-4.25l-.55-2.25-1.5-.9q-.35-2.7.65-5.7l-1.6-.45 4.3-6.6q1.7-4.55 6.15-6.75" fill="#904e03" transform="translate(16.85 10.15)"/><path d="m-2.95 8.2-8.7.75-3.45-.5q1.7-1.85 4.55-7.5Q-7.4-3.9-2.5-4.4q5.6-.55 9 1.15 2.65 1.35 4.9 4.8Q13.65 5.1 14 9.1l.7 6-.9-.15-.6-.45.1.25q-.5 3.55-1.4 5.35l-.35-2.35q-.6-9.3-6.25-14.45-1.25 3.3-8.25 4.9" fill="#ffde05" transform="translate(16.85 10.15)"/><path d="M-14.05 14.75q-1.15-.05-1.2-.4Q-15.6 12-12.9 6.1q1.05-2.35 3.1-4.2l-1.65 8.55q-1.3 7.35-1.05 10.6-1.15-2.1-1.45-4.4l-.1-1.9" fill="#ffde05" transform="translate(16.85 10.15)"/><path d="m-15.45 9.6.4-.95 6.8.3v1.15l-5.6-.15-1.6-.35m1.25-2.45V6.3q.15-1 .75-1.7Q-9.5.25-3.7.25-7.8.75-11.4 4l-2.8 3.15" fill="#904e03" transform="translate(16.85 10.15)"/><path d="M-.85 6.3Q-4.7 7.95-10.3 8.35l-4.8.1Q-10.7 2.3-4.15.4q-3 1.3-5.55 3.75 4.3-2 8.9-2.95-3.4.9-9.85 5Q-4.6 5.5 3.65.85.75 4.35-6.45 6.3q6.05-.35 11.1-3.75Q2.45 4.9-.85 6.3m-10.9 3.95q-1.2 3.95-.75 10.25-1.55-6.95-1-9.4.2-.75.55-.95l.3-.05.9.15" fill="#fff76d" transform="translate(16.85 10.15)"/><path d="m-14.65 14.7-.6-.45q-.25-.8.85-4.2h1.35l-.7 1.2q-.7 1.6-.9 3.45" fill="#fff76d" transform="translate(16.85 10.15)"/><path d="m-14.35 9.9.35.1-.9 4.5q-.25.25-.35-.1l.9-4.5" fill="#fff" transform="translate(16.85 10.15)"/><path d="m1.05-3.9-2.9.15q-.1.65.7 2.85Q-2.8-3.4-4.2-3.2q-2.5.45-2.15 1.3.15.35 4.05 1.2l-5.55.15Q-8-.1-4.25-.1q-4 .2-6.15 1.35 4.1-6.1 10.5-5.8 11.45.5 13.55 11.9l.9 7.8-.4.1-1.65-4.15q-.4-1-.4 3 0 5.05-.2 6 .25-6.3-1.45-9.85L7.8 6.55q-.75-1.1.7-1.15 1.5 0 2.6 1.4-.9-2.65-.85-3.2.05-.6 1.25 0Q9.3 1.75 7.45.95L6.05.5l.7-.55 1.9-.4q-2.35-1-4.25-.7l-1.45.5.5-1.05q.7-1.05 1.5-1.25-2.05 0-3.25 1.05L.95-.85q.25-2.7.1-3.05" fill="#fff76d" transform="translate(16.85 10.15)"/><path d="m-9.55 3.3-1.8 2.7q-1.35 2.05 4.85.05-1.7 1.1 4.75.2-2.55 1.2-7.4 1.5-4.65.3-4.3-.4l3.9-4.05m18.25 4q1.75.75 2.35 2.6.7 2.1.75 7.35-.3-6.1-3.1-9.95" fill="#fff" transform="translate(16.85 10.15)"/><path d="M14.1 15.8q-.25-.85-1.75 3.05 1.6-5.6-1.2-13.4 2.3 3.2 2.95 10.35m-28.1.8q-.1-.25-.35-.1-.1-3.4.75-5.05-.5 1.05-.45 3.45l.05 1.7" fill="#904e03" transform="translate(16.85 10.15)"/><path d="M-6.35-3.7q-.4.2-.8.35l-.35.95v.05l.05.35.1.3.4.7q.65.8 1.45.8.2 0 .5-.2-1.15-1.5-1.3-3v-.3h-.05M-11-.7v.3l.25.45.55.5.6.2.2-.05.05-.35V.3l-.4-.75q-.5-.5-1-.5l-.2.05-.05.2M1.65-5.15.9-6.5q-.75-.75-1.75-.75t-1.75.75l-.8 1.4q1.65 1.45 1.75 3.45l-.05.6.85.25.8-.2-.1-.55v-.15q.1-1.95 1.8-3.45M9.1-.4l.05-.25-.05-.3h-.15q-.6 0-1 .5l-.15.2-.2.35-.05.2v.1l.05.3.15.05L8.3.6l.6-.55.2-.45m-5.85 0q.3.2.45.2.8 0 1.45-.8l.35-.6.15-.35v-.45l-.3-.95-.7-.35H4.6v.35Q4.35-1.75 3.25-.4m.95-5.85.45-.05q2.95 0 3.6 2.9L9-3.55q1.55 0 2.3 1 .6.75.6 1.75v.2l-.05.25.8.55q.35.4.35 1.1v.1l-.15.7q-.8 2.15-3.1 2.15-1.25 0-1.8-1.05l-.25.05q-1.6 0-2.4-1.3l-1.6.35q-1.45 0-2.5-1.05l-2.05.5-2.1-.5Q-4.05 2.3-5.5 2.3l-1.6-.35q-.8 1.3-2.45 1.3l-.2-.05q-.65 1.05-1.85 1.05-2.3 0-3.1-2.15l-.15-.7v-.1q0-.7.35-1.1l.8-.55-.05-.25v-.2q0-1 .6-1.75.75-1 2.3-1l.8.15q.65-2.9 3.65-2.9l.5.05q1.4-3.7 5.05-3.7t5.05 3.7" fill="#798181" transform="translate(16.85 10.15)"/><path d="M8.1-2.65 7.6-3Q5.25-4.8 1.75-5l-.35-.05-.15-.3L.7-6.2q-.6-.7-1.55-.7-.85 0-1.55.7l-.7 1.15-.1.3-.25.1-2.55.9h-.3q-.75.1-1.05.75l-.05.1-.05.05-2.4 2.2-.25.2h-.15l-.5-.15.3.75-.05.15-.8 1.55L-13 4.3l-.45-.25Q-14.5 3.4-15 2.25l-.15-.75v-.15q0-.6.4-1.25l.7-.5v-.3q0-1.05.65-1.95.95-1.1 2.6-1.1l.6.1q.8-2.85 3.8-2.85l.35.05q1.55-3.7 5.2-3.7 3.65 0 5.2 3.65l.3-.05q2.95 0 3.8 2.9l.55-.1q1.6 0 2.55 1.1.65.9.65 1.95v.3l.7.5q.35.5.35 1.25v.2l-.15.75-.6 1.35L12 2.5 10.8.4 8.1-2.65" fill="#4c494c" transform="translate(16.85 10.15)"/><path d="m-5.65-4.25-.8-.2q-.8 0-1.4.6-.75.75-.5 2l.15.45.5.85Q-6.8.5-5.6.5q.8 0 1.3-.45l.25-.3q-1.4-1.3-1.55-3.2l-.05-.8m-5.3 2.55-.8.3-.2.75.05.45.35.65.8.7 1 .3.8-.3q.35-.35.2-.95l-.05-.3-.5-.8q-.8-.8-1.65-.8m18.4.85L7-.15 6.9.2v.2l.25.8.75.25 1.05-.3.75-.7.35-.65q.25-.75-.15-1.2-.3-.3-.8-.3-.9 0-1.65.85M1.9-1.6v.05q.6-.85.75-1.85-.65.75-.75 1.8M.8-.55q-.15-.5-.15-1.1.1-2 1.95-3.3Q2.35-6.2 1.55-7 .45-8-.85-8-2.2-8-3.2-7q-.85.8-1.1 2.1 1.75 1.2 1.85 3.25l-.1 1.05q.8.55 1.7.55.8 0 1.65-.5M3.95-4.3l-.05.85q-.2 1.9-1.6 3.2l.25.3L3.8.5Q4.95.5 5.9-.6l.45-.75.15-.5q.3-1.15-.45-2-.6-.6-1.35-.6l-.75.15M3.8-5.45l.9-.1q3.1 0 3.1 3.05l1.35-.3q2.95 0 2.1 2.85 1.7.2 1.1 1.85-.65 1.65-2.4 1.65-1.3 0-1.4-1.1l-.7.1q-1.75 0-2.1-1.5-.95.55-2 .55-1.5 0-2.4-1.15-1.2.6-2.2.6-1.05 0-2.25-.6Q-4 1.6-5.55 1.6q-1.05 0-2-.55-.4 1.5-2.15 1.5l-.65-.1q-.15 1.1-1.45 1.1-1.85 0-2.4-1.65-.6-1.65 1.1-1.85-.35-1.15.25-2 .6-.85 1.85-.85l1.35.3q.1-3.05 3.15-3.05l1 .15q.95-3.8 4.65-3.8 3.65 0 4.65 3.75" fill="#d4e6e6" transform="translate(16.85 10.15)"/><path d="m-10.65-1.65-.65-1.15h.25l1.35.3q0-1.65 1.35-2.55l.4 1.2q-.7.85-.45 2l.15.45.5.85q.65.75 1.4.95l.5 1.2-1.75-.55q-.2.75-.95 1.15l-.55-.95.05-.1q.4-.3.25-.95l-.05-.3-.5-.8q-.5-.55-1.3-.75M.75-.55Q.6-1.05.6-1.65q.05-1.7 1.45-2.9l-.1 2.35-.1.6v.05l.05-.15L1.8.95l-.5-.5q-1.2.6-2.2.6-1.15 0-2.25-.6l-1.05.85-.5-1.05.35-.2.25-.3q-1.4-1.3-1.6-3.2v-.8l-.75-.15-.3-1.15h.2l1 .15Q-4.6-9.2-.9-9.2q1.75 0 3.15 1.25l-.1 1.85-.7-.9Q.45-8-.9-8q-1.4 0-2.4 1-.75.75-1.1 2.1 1.8 1.25 1.9 3.25L-2.65-.6q.85.55 1.75.55.8 0 1.65-.5" fill="#fff" transform="translate(16.85 10.15)"/><path d="m-13.05-1.6 1.1 1.05.05.35.35.65.8.7.85.3 1.05.95-.85.15-.65-.1q-.15 1.1-1.45 1.1-1.85 0-2.4-1.65-.6-1.65 1.1-1.85-.3-.9.05-1.65m23.1 1.4v-.95l.8-.95q.8.8.4 2.15 1.7.2 1.1 1.85-.65 1.65-2.4 1.65-1.3 0-1.4-1.1l-.7.1L7 2.4l.85-.95h.05l1.05-.3.75-.7.35-.65" fill="#b3bbc0" transform="translate(16.85 10.15)"/><path d="M-1.85-7.65Q-1.95-6.5-3-6.5q-1.15 0-1.15-1.15 0-1.2 1.15-1.2t1.15 1.2M-6.5-4.7q0 1-.95 1-1 0-1-1 0-1.05 1-1.05.95 0 .95 1.05" fill="#fff" transform="translate(16.85 10.15)"/><path d="M-7.95-2.95q0 1-.95 1-1 0-1-1t1-1q.95 0 .95 1m-2.1.6q0 .85-.9.85-.85 0-.85-.85 0-.9.85-.9.9 0 .9.9M-3.65-6q0 1.05-.9 1.05-.95 0-.95-1.05t.95-1.05q.9 0 .9 1.05m3.1-2.55q0 .75-.8.75-.85 0-.85-.75 0-.8.85-.8.8 0 .8.8m3.65 1.6q0 .8-.8.8-.85 0-.85-.8t.85-.8q.8 0 .8.8M2.6-.5q0 .8-.85.8-.8 0-.8-.8t.8-.8q.85 0 .85.8m.3-3.35Q2.9-3 2-3q-.85 0-.85-.85 0-.8.85-.8.9 0 .9.8m6.75 1.7q-.1.5-.55.5-.55 0-.45-.5.1-.55.55-.55.45 0 .45.55M-12-1.5q-.1.55-.55.55-.5 0-.4-.55 0-.5.55-.5.5 0 .4.5M-13.1.85q-.1.5-.55.5-.55 0-.45-.5.1-.55.55-.55.45 0 .45.55m24-2.45q-.1.5-.55.5-.55 0-.45-.5.1-.55.55-.55.45 0 .45.55M-5.55 1.15q-.1.5-.55.5-.45 0-.45-.5.1-.55.55-.55.55 0 .45.55m13-4.25q0 .45-.5.45-.4 0-.4-.45.1-.5.5-.5.5 0 .4.5m-.6-1.25q-.1.45-.5.45-.5 0-.4-.45 0-.5.5-.5.4 0 .4.5M5.6-4.9q-.1.45-.5.45-.5 0-.4-.45 0-.5.5-.5.4 0 .4.5" fill="#fff" transform="translate(16.85 10.15)"/></g></defs></svg>

<?xml version="1.0" encoding="UTF-8" standalone="no"?>
<svg xmlns:xlink="http://www.w3.org/1999/xlink" height="92.9px" width="100.7px" xmlns="http://www.w3.org/2000/svg">
  <g transform="matrix(1.0, 0.0, 0.0, 1.0, 38.65, 49.75)">
    <use height="33.1" transform="matrix(1.0, 0.0, 0.0, 1.0, -16.85, -10.15)" width="32.35" xlink:href="#shape0"/>
  </g>
  <defs>
    <g id="shape0" transform="matrix(1.0, 0.0, 0.0, 1.0, 16.85, 10.15)">
      <path d="M-6.4 -3.95 Q-4.15 -5.05 -2.25 -5.25 3.5 -5.85 7.0 -4.0 9.8 -2.55 12.2 1.15 14.3 4.25 14.7 9.2 15.1 14.1 15.5 15.8 14.2 16.05 13.7 16.65 L13.4 17.2 Q12.55 22.9 11.4 22.6 11.4 19.25 10.65 15.35 9.1 7.6 5.3 4.95 2.9 8.0 -2.9 9.25 L-10.7 10.1 Q-12.35 19.2 -12.05 22.95 -13.1 21.25 -13.85 18.7 L-14.4 16.45 -15.9 15.55 Q-16.25 12.85 -15.25 9.85 L-16.85 9.4 -12.55 2.8 Q-10.85 -1.75 -6.4 -3.95" fill="#904e03" fill-rule="evenodd" stroke="none"/>
      <path d="M-2.95 8.2 L-11.65 8.95 -15.1 8.45 Q-13.4 6.6 -10.55 0.95 -7.4 -3.9 -2.5 -4.4 3.1 -4.95 6.5 -3.25 9.15 -1.9 11.4 1.55 13.65 5.1 14.0 9.1 L14.7 15.1 13.8 14.95 13.2 14.5 13.3 14.75 Q12.8 18.3 11.9 20.1 L11.55 17.75 Q10.95 8.45 5.3 3.3 4.05 6.6 -2.95 8.2" fill="#ffde05" fill-rule="evenodd" stroke="none"/>
      <path d="M-14.05 14.75 Q-15.2 14.7 -15.25 14.35 -15.6 12.0 -12.9 6.1 -11.85 3.75 -9.8 1.9 L-11.45 10.45 Q-12.75 17.8 -12.5 21.05 -13.65 18.95 -13.95 16.65 L-14.05 14.75" fill="#ffde05" fill-rule="evenodd" stroke="none"/>
      <path d="M-15.45 9.6 L-15.05 8.65 -8.25 8.95 -8.25 10.1 -13.85 9.95 -15.45 9.6" fill="#904e03" fill-rule="evenodd" stroke="none"/>
      <path d="M-14.2 7.15 L-14.2 6.3 Q-14.05 5.3 -13.45 4.6 -9.5 0.25 -3.7 0.25 -7.8 0.75 -11.4 4.0 L-14.2 7.15" fill="#904e03" fill-rule="evenodd" stroke="none"/>
      <path d="M-0.85 6.3 Q-4.7 7.95 -10.3 8.35 L-15.1 8.45 Q-10.7 2.3 -4.15 0.4 -7.15 1.7 -9.7 4.15 -5.4 2.15 -0.8 1.2 -4.2 2.1 -10.65 6.2 -4.6 5.5 3.65 0.85 0.75 4.35 -6.45 6.3 -0.4 5.95 4.65 2.55 2.45 4.9 -0.85 6.3" fill="#fff76d" fill-rule="evenodd" stroke="none"/>
      <path d="M-11.75 10.25 Q-12.95 14.2 -12.5 20.5 -14.05 13.55 -13.5 11.1 -13.3 10.35 -12.95 10.15 L-12.65 10.1 -11.75 10.25" fill="#fff76d" fill-rule="evenodd" stroke="none"/>
      <path d="M-14.65 14.7 L-15.25 14.25 Q-15.5 13.45 -14.4 10.05 L-13.05 10.05 -13.75 11.25 Q-14.45 12.85 -14.65 14.7" fill="#fff76d" fill-rule="evenodd" stroke="none"/>
      <path d="M-14.35 9.9 L-14.0 10.0 -14.9 14.5 Q-15.15 14.75 -15.25 14.4 L-14.35 9.9" fill="#ffffff" fill-rule="evenodd" stroke="none"/>
      <path d="M1.05 -3.9 L-1.85 -3.75 Q-1.95 -3.1 -1.15 -0.9 -2.8 -3.4 -4.2 -3.2 -6.7 -2.75 -6.35 -1.9 -6.2 -1.55 -2.3 -0.7 L-7.85 -0.55 Q-8.0 -0.1 -4.25 -0.1 -8.25 0.1 -10.4 1.25 -6.3 -4.85 0.1 -4.55 11.55 -4.05 13.65 7.35 L14.55 15.15 14.15 15.25 12.5 11.1 Q12.1 10.1 12.1 14.1 12.1 19.15 11.9 20.1 12.15 13.8 10.45 10.25 L7.8 6.55 Q7.05 5.45 8.5 5.4 10.0 5.4 11.1 6.8 10.2 4.15 10.25 3.6 10.3 3.0 11.5 3.6 9.3 1.75 7.45 0.95 L6.05 0.5 6.75 -0.05 8.65 -0.45 Q6.3 -1.45 4.4 -1.15 L2.95 -0.65 3.45 -1.7 Q4.15 -2.75 4.95 -2.95 2.9 -2.95 1.7 -1.9 L0.95 -0.85 Q1.2 -3.55 1.05 -3.9" fill="#fff76d" fill-rule="evenodd" stroke="none"/>
      <path d="M-9.55 3.3 L-11.35 6.0 Q-12.7 8.05 -6.5 6.05 -8.2 7.15 -1.75 6.25 -4.3 7.45 -9.15 7.75 -13.8 8.05 -13.45 7.35 L-9.55 3.3" fill="#ffffff" fill-rule="evenodd" stroke="none"/>
      <path d="M8.7 7.3 Q10.45 8.05 11.05 9.9 11.75 12.0 11.8 17.25 11.5 11.15 8.7 7.3" fill="#ffffff" fill-rule="evenodd" stroke="none"/>
      <path d="M14.1 15.8 Q13.85 14.95 12.35 18.85 13.95 13.25 11.15 5.45 13.45 8.65 14.1 15.8" fill="#904e03" fill-rule="evenodd" stroke="none"/>
      <path d="M-14.0 16.6 Q-14.1 16.35 -14.35 16.5 -14.45 13.1 -13.6 11.45 -14.1 12.5 -14.05 14.9 L-14.0 16.6" fill="#904e03" fill-rule="evenodd" stroke="none"/>
      <path d="M-6.35 -3.7 Q-6.75 -3.5 -7.15 -3.35 L-7.5 -2.4 -7.5 -2.35 -7.45 -2.0 -7.35 -1.7 -6.95 -1.0 Q-6.3 -0.2 -5.5 -0.2 -5.3 -0.2 -5.0 -0.4 -6.15 -1.9 -6.3 -3.4 L-6.3 -3.7 -6.35 -3.7 M-11.0 -0.7 L-11.0 -0.4 -10.75 0.05 -10.2 0.55 -9.6 0.75 -9.4 0.7 -9.35 0.35 -9.35 0.3 -9.75 -0.45 Q-10.25 -0.95 -10.75 -0.95 L-10.95 -0.9 -11.0 -0.7 M1.65 -5.15 L0.9 -6.5 Q0.15 -7.25 -0.85 -7.25 -1.85 -7.25 -2.6 -6.5 L-3.4 -5.1 Q-1.75 -3.65 -1.65 -1.65 L-1.7 -1.05 -0.85 -0.8 -0.05 -1.0 -0.15 -1.55 -0.15 -1.7 Q-0.05 -3.65 1.65 -5.15 M9.1 -0.4 L9.15 -0.65 9.1 -0.95 8.95 -0.95 Q8.35 -0.95 7.95 -0.45 L7.8 -0.25 7.6 0.1 7.55 0.3 7.55 0.4 7.6 0.7 7.75 0.75 8.3 0.6 8.9 0.05 9.1 -0.4 M3.25 -0.4 Q3.55 -0.2 3.7 -0.2 4.5 -0.2 5.15 -1.0 L5.5 -1.6 5.65 -1.95 5.65 -2.4 5.35 -3.35 4.65 -3.7 4.6 -3.7 4.6 -3.35 Q4.35 -1.75 3.25 -0.4 M4.2 -6.25 L4.65 -6.3 Q7.6 -6.3 8.25 -3.4 L9.0 -3.55 Q10.55 -3.55 11.3 -2.55 11.9 -1.8 11.9 -0.8 L11.9 -0.6 11.85 -0.35 12.65 0.2 Q13.0 0.6 13.0 1.3 L13.0 1.4 12.85 2.1 Q12.05 4.25 9.75 4.25 8.5 4.25 7.95 3.2 L7.7 3.25 Q6.1 3.25 5.3 1.95 L3.7 2.3 Q2.25 2.3 1.2 1.25 L-0.85 1.75 -2.95 1.25 Q-4.05 2.3 -5.5 2.3 L-7.1 1.95 Q-7.9 3.25 -9.55 3.25 L-9.75 3.2 Q-10.4 4.25 -11.6 4.25 -13.9 4.25 -14.7 2.1 L-14.85 1.4 -14.85 1.3 Q-14.85 0.6 -14.5 0.2 L-13.7 -0.35 -13.75 -0.6 -13.75 -0.8 Q-13.75 -1.8 -13.15 -2.55 -12.4 -3.55 -10.85 -3.55 L-10.05 -3.4 Q-9.4 -6.3 -6.4 -6.3 L-5.9 -6.25 Q-4.5 -9.95 -0.85 -9.95 2.8 -9.95 4.2 -6.25" fill="#798181" fill-rule="evenodd" stroke="none"/>
      <path d="M8.1 -2.65 L7.6 -3.0 Q5.25 -4.8 1.75 -5.0 L1.4 -5.05 1.25 -5.35 0.7 -6.2 Q0.1 -6.9 -0.85 -6.9 -1.7 -6.9 -2.4 -6.2 L-3.1 -5.05 -3.2 -4.75 -3.45 -4.65 -6.0 -3.75 -6.3 -3.75 Q-7.05 -3.65 -7.35 -3.0 L-7.4 -2.9 -7.45 -2.85 -9.85 -0.65 -10.1 -0.45 -10.25 -0.45 -10.75 -0.6 -10.45 0.15 -10.5 0.3 -11.3 1.85 -13.0 4.3 -13.45 4.05 Q-14.5 3.4 -15.0 2.25 L-15.15 1.5 -15.15 1.35 Q-15.15 0.75 -14.75 0.1 L-14.05 -0.4 -14.05 -0.7 Q-14.05 -1.75 -13.4 -2.65 -12.45 -3.75 -10.8 -3.75 L-10.2 -3.65 Q-9.4 -6.5 -6.4 -6.5 L-6.05 -6.45 Q-4.5 -10.15 -0.85 -10.15 2.8 -10.15 4.35 -6.5 L4.65 -6.55 Q7.6 -6.55 8.45 -3.65 L9.0 -3.75 Q10.6 -3.75 11.55 -2.65 12.2 -1.75 12.2 -0.7 L12.2 -0.4 12.9 0.1 Q13.25 0.6 13.25 1.35 L13.25 1.55 13.1 2.3 12.5 3.65 12.0 2.5 10.8 0.4 8.1 -2.65" fill="#4c494c" fill-rule="evenodd" stroke="none"/>
      <path d="M-5.65 -4.25 L-6.45 -4.45 Q-7.25 -4.45 -7.85 -3.85 -8.6 -3.1 -8.35 -1.85 L-8.2 -1.4 -7.7 -0.55 Q-6.8 0.5 -5.6 0.5 -4.8 0.5 -4.3 0.05 L-4.05 -0.25 Q-5.45 -1.55 -5.6 -3.45 L-5.65 -4.25 M-10.95 -1.7 L-11.75 -1.4 -11.95 -0.65 -11.9 -0.2 -11.55 0.45 -10.75 1.15 -9.75 1.45 -8.95 1.15 Q-8.6 0.8 -8.75 0.2 L-8.8 -0.1 -9.3 -0.9 Q-10.1 -1.7 -10.95 -1.7 M7.45 -0.85 L7.0 -0.15 6.9 0.2 6.9 0.4 7.15 1.2 7.9 1.45 8.95 1.15 9.7 0.45 10.05 -0.2 Q10.3 -0.95 9.9 -1.4 9.6 -1.7 9.1 -1.7 8.2 -1.7 7.45 -0.85 M1.9 -1.6 L1.9 -1.55 Q2.5 -2.4 2.65 -3.4 2.0 -2.65 1.9 -1.6 M0.8 -0.55 Q0.65 -1.05 0.65 -1.65 0.75 -3.65 2.6 -4.95 2.35 -6.2 1.55 -7.0 0.45 -8.0 -0.85 -8.0 -2.2 -8.0 -3.2 -7.0 -4.05 -6.2 -4.3 -4.9 -2.55 -3.7 -2.45 -1.65 L-2.55 -0.6 Q-1.75 -0.05 -0.85 -0.05 -0.05 -0.05 0.8 -0.55 M3.95 -4.3 L3.9 -3.45 Q3.7 -1.55 2.3 -0.25 L2.55 0.05 3.8 0.5 Q4.95 0.5 5.9 -0.6 L6.35 -1.35 6.5 -1.85 Q6.8 -3.0 6.05 -3.85 5.45 -4.45 4.7 -4.45 L3.95 -4.3 M3.8 -5.45 L4.7 -5.55 Q7.8 -5.55 7.8 -2.5 L9.15 -2.8 Q12.1 -2.8 11.25 0.05 12.95 0.25 12.35 1.9 11.7 3.55 9.95 3.55 8.65 3.55 8.55 2.45 L7.85 2.55 Q6.1 2.55 5.75 1.05 4.8 1.6 3.75 1.6 2.25 1.6 1.35 0.45 0.15 1.05 -0.85 1.05 -1.9 1.05 -3.1 0.45 -4.0 1.6 -5.55 1.6 -6.6 1.6 -7.55 1.05 -7.95 2.55 -9.7 2.55 L-10.35 2.45 Q-10.5 3.55 -11.8 3.55 -13.65 3.55 -14.2 1.9 -14.8 0.25 -13.1 0.05 -13.45 -1.1 -12.85 -1.95 -12.25 -2.8 -11.0 -2.8 L-9.65 -2.5 Q-9.55 -5.55 -6.5 -5.55 L-5.5 -5.4 Q-4.55 -9.2 -0.85 -9.2 2.8 -9.2 3.8 -5.45" fill="#d4e6e6" fill-rule="evenodd" stroke="none"/>
      <path d="M-10.65 -1.65 L-11.3 -2.8 -11.05 -2.8 -9.7 -2.5 Q-9.7 -4.15 -8.35 -5.05 L-7.95 -3.85 Q-8.65 -3.0 -8.4 -1.85 L-8.25 -1.4 -7.75 -0.55 Q-7.1 0.2 -6.35 0.4 L-5.85 1.6 -7.6 1.05 Q-7.8 1.8 -8.55 2.2 L-9.1 1.25 -9.05 1.15 Q-8.65 0.85 -8.8 0.2 L-8.85 -0.1 -9.35 -0.9 Q-9.85 -1.45 -10.65 -1.65 M0.75 -0.55 Q0.6 -1.05 0.6 -1.65 0.65 -3.35 2.05 -4.55 L1.95 -2.2 1.85 -1.6 1.85 -1.55 1.9 -1.7 1.8 0.95 1.3 0.45 Q0.1 1.05 -0.9 1.05 -2.05 1.05 -3.15 0.45 L-4.2 1.3 -4.7 0.25 -4.35 0.05 -4.1 -0.25 Q-5.5 -1.55 -5.7 -3.45 L-5.7 -4.25 -6.45 -4.4 -6.75 -5.55 -6.55 -5.55 -5.55 -5.4 Q-4.6 -9.2 -0.9 -9.2 0.85 -9.2 2.25 -7.95 L2.15 -6.1 1.45 -7.0 Q0.45 -8.0 -0.9 -8.0 -2.3 -8.0 -3.3 -7.0 -4.05 -6.25 -4.4 -4.9 -2.6 -3.65 -2.5 -1.65 L-2.65 -0.6 Q-1.8 -0.05 -0.9 -0.05 -0.1 -0.05 0.75 -0.55" fill="#ffffff" fill-rule="evenodd" stroke="none"/>
      <path d="M-13.05 -1.6 L-11.95 -0.55 -11.9 -0.2 -11.55 0.45 -10.75 1.15 -9.9 1.45 -8.85 2.4 -9.7 2.55 -10.35 2.45 Q-10.5 3.55 -11.8 3.55 -13.65 3.55 -14.2 1.9 -14.8 0.25 -13.1 0.05 -13.4 -0.85 -13.05 -1.6 M10.05 -0.2 L10.05 -1.15 10.85 -2.1 Q11.65 -1.3 11.25 0.05 12.95 0.25 12.35 1.9 11.7 3.55 9.95 3.55 8.65 3.55 8.55 2.45 L7.85 2.55 7.0 2.4 7.85 1.45 7.9 1.45 8.95 1.15 9.7 0.45 10.05 -0.2" fill="#b3bbc0" fill-rule="evenodd" stroke="none"/>
      <path d="M-1.85 -7.65 Q-1.95 -6.5 -3.0 -6.5 -4.15 -6.5 -4.15 -7.65 -4.15 -8.85 -3.0 -8.85 -1.85 -8.85 -1.85 -7.65" fill="#ffffff" fill-rule="evenodd" stroke="none"/>
      <path d="M-6.5 -4.7 Q-6.5 -3.7 -7.45 -3.7 -8.45 -3.7 -8.45 -4.7 -8.45 -5.75 -7.45 -5.75 -6.5 -5.75 -6.5 -4.7" fill="#ffffff" fill-rule="evenodd" stroke="none"/>
      <path d="M-7.95 -2.95 Q-7.95 -1.95 -8.9 -1.95 -9.9 -1.95 -9.9 -2.95 -9.9 -3.95 -8.9 -3.95 -7.95 -3.95 -7.95 -2.95" fill="#ffffff" fill-rule="evenodd" stroke="none"/>
      <path d="M-10.05 -2.35 Q-10.05 -1.5 -10.95 -1.5 -11.8 -1.5 -11.8 -2.35 -11.8 -3.25 -10.95 -3.25 -10.05 -3.25 -10.05 -2.35" fill="#ffffff" fill-rule="evenodd" stroke="none"/>
      <path d="M-3.65 -6.0 Q-3.65 -4.95 -4.55 -4.95 -5.5 -4.95 -5.5 -6.0 -5.5 -7.05 -4.55 -7.05 -3.65 -7.05 -3.65 -6.0" fill="#ffffff" fill-rule="evenodd" stroke="none"/>
      <path d="M-0.55 -8.55 Q-0.55 -7.8 -1.35 -7.8 -2.2 -7.8 -2.2 -8.55 -2.2 -9.35 -1.35 -9.35 -0.55 -9.35 -0.55 -8.55" fill="#ffffff" fill-rule="evenodd" stroke="none"/>
      <path d="M3.1 -6.95 Q3.1 -6.15 2.3 -6.15 1.45 -6.15 1.45 -6.95 1.45 -7.75 2.3 -7.75 3.1 -7.75 3.1 -6.95" fill="#ffffff" fill-rule="evenodd" stroke="none"/>
      <path d="M2.6 -0.5 Q2.6 0.3 1.75 0.3 0.95 0.3 0.95 -0.5 0.95 -1.3 1.75 -1.3 2.6 -1.3 2.6 -0.5" fill="#ffffff" fill-rule="evenodd" stroke="none"/>
      <path d="M2.9 -3.85 Q2.9 -3.0 2.0 -3.0 1.15 -3.0 1.15 -3.85 1.15 -4.65 2.0 -4.65 2.9 -4.65 2.9 -3.85" fill="#ffffff" fill-rule="evenodd" stroke="none"/>
      <path d="M9.65 -2.15 Q9.55 -1.65 9.1 -1.65 8.55 -1.65 8.65 -2.15 8.75 -2.7 9.2 -2.7 9.65 -2.7 9.65 -2.15" fill="#ffffff" fill-rule="evenodd" stroke="none"/>
      <path d="M-12.0 -1.5 Q-12.1 -0.95 -12.55 -0.95 -13.05 -0.95 -12.95 -1.5 -12.95 -2.0 -12.4 -2.0 -11.9 -2.0 -12.0 -1.5" fill="#ffffff" fill-rule="evenodd" stroke="none"/>
      <path d="M-13.1 0.85 Q-13.2 1.35 -13.65 1.35 -14.2 1.35 -14.1 0.85 -14.0 0.3 -13.55 0.3 -13.1 0.3 -13.1 0.85" fill="#ffffff" fill-rule="evenodd" stroke="none"/>
      <path d="M10.9 -1.6 Q10.8 -1.1 10.35 -1.1 9.8 -1.1 9.9 -1.6 10.0 -2.15 10.45 -2.15 10.9 -2.15 10.9 -1.6" fill="#ffffff" fill-rule="evenodd" stroke="none"/>
      <path d="M-5.55 1.15 Q-5.65 1.65 -6.1 1.65 -6.55 1.65 -6.55 1.15 -6.45 0.6 -6.0 0.6 -5.45 0.6 -5.55 1.15" fill="#ffffff" fill-rule="evenodd" stroke="none"/>
      <path d="M7.45 -3.1 Q7.45 -2.65 6.95 -2.65 6.55 -2.65 6.55 -3.1 6.65 -3.6 7.05 -3.6 7.55 -3.6 7.45 -3.1" fill="#ffffff" fill-rule="evenodd" stroke="none"/>
      <path d="M6.85 -4.35 Q6.75 -3.9 6.35 -3.9 5.85 -3.9 5.95 -4.35 5.95 -4.85 6.45 -4.85 6.85 -4.85 6.85 -4.35" fill="#ffffff" fill-rule="evenodd" stroke="none"/>
      <path d="M5.6 -4.9 Q5.5 -4.45 5.1 -4.45 4.6 -4.45 4.7 -4.9 4.7 -5.4 5.2 -5.4 5.6 -5.4 5.6 -4.9" fill="#ffffff" fill-rule="evenodd" stroke="none"/>
    </g>
  </defs>
</svg>
